X: 1006
T: Waltz in the Bluegrass
C:Frank Wakefield
B: jims roots
M:3/4
L:1/8
Q: 1/4=100
K:Dm
V:1 
z2 F(3CDF | "F"[A3(c3] c) (3AGF | [A3c3] F (3CDF | [A3c3] c (3AGF |"Dm"[D3F3] F (3CDF |
"F"[A3c3]cc (3AGF | [A3c3]c (3AGF | "Dm"[D6F6] |[D3F3] F (3CDF | "Gm"[G4B4][GB][FB] |
"F"[A3c3]c (3AGF | [C3F3] F (3CDF | "Gm"[G4B4][GB][FB] | "C"[A4c4][A2c2] | "F"([F6A6] | [F6A6]) ||
|:"A7"A,3A, ^CD | E3E FE | "Dm"D4 F2 | A3A GE | "A7"A,3A, ^CD |
E3E FE | [1 "Dm"(D6 | D6):| [2"Dm"D2F2A2 | d4|]
V:G4B4 
V:FB 
[GB] | "F"[A3c3]c (3AGF | [C3F3] F (3CDF | "Gm"[G4B4] [GB][FB] | [G4B4][FB][GB] |
% abcbook-tune_id 6298c2972a30bbfc7e0e3e6e


% abcbook-boost 0
% abcbook-tablature 
% abcbook-transpose 
% abcbook-lastupdated 1654178456624
% abcbook-soundfonts 
% abcbook-repeats 1


